X:7
T: ICH HATT MAL EINEN SCHWEREN STAND
N: F0033
O: Europa, Mitteleuropa, Deutschland
R: Liebes - Lied, Scherz
M: 4/4
L: 1/16
K: Bb
F2 | F2D2D2F2F2D2D2z2 | B8F4z2
F2 | E2C2C2E2E2C2C2z2 | c8E4z2
E2 | D2F2F2B2B6d2 | c3Bc3dc6
F2 | F2A2A2c2c6e2 | d3cd3ed4z2
f2 | f3ed2d2e2c2c2c2 | c8z6
c2 | d3cB2B2c2c2c2d2 | B8z4z2

@@@ Tune index: 5438
